X:4
T:Barbarini's Tambourine
M:2/4
L:1/8
Z:Alf Warnock - alf.warnock@rogers.com
K:Gmaj clef=treble
P:A
b/2c'/2 [||: "G"d'g gg|ga ab|ba/2b/2 "C"c'/2b/2a/2g/2|"D"ad db/2c'/2|
"G"d'g gg|ga ab|"G"ba/2b/2 "C"c'/2b/2a/2g/2 \
|1 "D"a3 b/2c'/2 :|2 "D"a3 f/2e'/2 |]
P:B
[||: "D"ad dd|d3g/2a/2|"Em"be ee|e3a/2b/2|
"D/F#"c'f fb/2c'/2|"G"d'g gb/2c'/2|"C"e'c' "D"f'd'|"G"g'f'/2e'/2 d'c'|
"G" ba/2g/2 "D"ag/2f/2|"G"gf/2e/2 "C"dc|"G"Bg "D"Af \
|1 "G"G3 f/2e'/2 :|2 "G"G3 b/2c'/2 |]

